X: 1134
T: ~ etc...
M: 6/8
L: 1/8
R: jig
K: D Major
|: d |
BAF E3 | FEF DFA | BAF DF/G/A | B2 A Bcd |
BAF E3 | FEF DFA | d2 f edc |[1 B2 ^A Bc :|[2 B2 ^A B2 ||
|: c |
d2 e fed | c2 d ecA | d2 e fed | f2 e ff/g/a |
dcd fed | c2 d ecA | d3 cdc |[1 B2 ^A B2 :|[2 B2 ^A Bc ||
